src/images/svg/custom/apple-40.svg

<svg width="40" height="40" viewBox="0 0 40 40" fill="none" xmlns="http://www.w3.org/2000/svg">
<rect width="40" height="40" rx="4" fill="black"/>
<path d="M20.2227 14.3846C21.0547 14.3846 22.0977 13.8048 22.7188 13.0318C23.2812 12.3312 23.6914 11.3528 23.6914 10.3744C23.6914 10.2416 23.6797 10.1087 23.6562 10C22.7305 10.0362 21.6172 10.6402 20.9492 11.4495C20.4219 12.0655 19.9414 13.0318 19.9414 14.0223C19.9414 14.1672 19.9648 14.3121 19.9766 14.3605C20.0352 14.3725 20.1289 14.3846 20.2227 14.3846ZM17.293 29C18.4297 29 18.9336 28.2149 20.3516 28.2149C21.793 28.2149 22.1094 28.9758 23.375 28.9758C24.6172 28.9758 25.4492 27.7921 26.2344 26.6325C27.1133 25.3039 27.4766 23.9994 27.5 23.939C27.418 23.9148 25.0391 22.9123 25.0391 20.0979C25.0391 17.658 26.9141 16.5588 27.0195 16.4743C25.7773 14.6383 23.8906 14.59 23.375 14.59C21.9805 14.59 20.8438 15.4596 20.1289 15.4596C19.3555 15.4596 18.3359 14.6383 17.1289 14.6383C14.832 14.6383 12.5 16.595 12.5 20.2912C12.5 22.5861 13.3672 25.014 14.4336 26.5842C15.3477 27.9129 16.1445 29 17.293 29Z" fill="white"/>
</svg>

<svg width="40" height="40" fill="none" xmlns="http://www.w3.org/2000/svg"><rect width="40" height="40" rx="4" fill="#000"/><path d="M20.223 14.385c.832 0 1.875-.58 2.496-1.353.562-.7.972-1.68.972-2.658 0-.132-.011-.265-.035-.374-.925.036-2.039.64-2.707 1.45-.527.616-1.008 1.582-1.008 2.572 0 .145.024.29.036.338.058.013.152.025.246.025ZM17.293 29c1.137 0 1.64-.785 3.059-.785 1.441 0 1.757.76 3.023.76 1.242 0 2.074-1.183 2.86-2.343.878-1.328 1.242-2.633 1.265-2.693-.082-.024-2.46-1.027-2.46-3.841 0-2.44 1.874-3.54 1.98-3.624-1.243-1.836-3.13-1.884-3.645-1.884-1.395 0-2.531.87-3.246.87-.774 0-1.793-.822-3-.822-2.297 0-4.629 1.957-4.629 5.653 0 2.295.867 4.723 1.934 6.293.914 1.329 1.71 2.416 2.859 2.416Z" fill="#fff"/></svg>
